MODULE MainModule
	CONST robtarget p01 := [ [550.0, 81.075, 779.4795454545455], [0.707106781, 0, 0.707106781, 0], [0, 0, 0, 0], [ 9E9, 9E9, 9E9, 9E9, 9E9, 9E9] ];
	CONST robtarget p02 := [ [550.0, 81.64945054945055, 778.3725274725275], [0.707106781, 0, 0.707106781, 0], [0, 0, 0, 0], [ 9E9, 9E9, 9E9, 9E9, 9E9, 9E9] ];
	CONST robtarget p03 := [ [550.0, 82.40380434782608, 776.8538043478261], [0.707106781, 0, 0.707106781, 0], [0, 0, 0, 0], [ 9E9, 9E9, 9E9, 9E9, 9E9, 9E9] ];
	CONST robtarget p04 := [ [550.0, 83.02747252747253, 775.5307692307692], [0.707106781, 0, 0.707106781, 0], [0, 0, 0, 0], [ 9E9, 9E9, 9E9, 9E9, 9E9, 9E9] ];
	CONST robtarget p05 := [ [550.0, 83.64065934065934, 774.1741758241758], [0.707106781, 0, 0.707106781, 0], [0, 0, 0, 0], [ 9E9, 9E9, 9E9, 9E9, 9E9, 9E9] ];
	CONST robtarget p06 := [ [550.0, 84.21741573033708, 772.8308988764045], [0.707106781, 0, 0.707106781, 0], [0, 0, 0, 0], [ 9E9, 9E9, 9E9, 9E9, 9E9, 9E9] ];
	CONST robtarget p07 := [ [550.0, 84.69890109890109, 771.6291208791208], [0.707106781, 0, 0.707106781, 0], [0, 0, 0, 0], [ 9E9, 9E9, 9E9, 9E9, 9E9, 9E9] ];
	CONST robtarget p08 := [ [550.0, 85.53876404494383, 769.3505617977528], [0.707106781, 0, 0.707106781, 0], [0, 0, 0, 0], [ 9E9, 9E9, 9E9, 9E9, 9E9, 9E9] ];
	CONST robtarget p09 := [ [550.0, 86.02087912087912, 767.8725274725275], [0.707106781, 0, 0.707106781, 0], [0, 0, 0, 0], [ 9E9, 9E9, 9E9, 9E9, 9E9, 9E9] ];
	CONST robtarget p10 := [ [550.0, 86.36590909090908, 766.7022727272728], [0.707106781, 0, 0.707106781, 0], [0, 0, 0, 0], [ 9E9, 9E9, 9E9, 9E9, 9E9, 9E9] ];
	CONST robtarget p11 := [ [550.0, 87.0032967032967, 764.2923076923076], [0.707106781, 0, 0.707106781, 0], [0, 0, 0, 0], [ 9E9, 9E9, 9E9, 9E9, 9E9, 9E9] ];
	CONST robtarget p12 := [ [550.0, 87.29505494505494, 763.0873626373626], [0.707106781, 0, 0.707106781, 0], [0, 0, 0, 0], [ 9E9, 9E9, 9E9, 9E9, 9E9, 9E9] ];
	CONST robtarget p13 := [ [550.0, 87.54166666666666, 761.8883333333333], [0.707106781, 0, 0.707106781, 0], [0, 0, 0, 0], [ 9E9, 9E9, 9E9, 9E9, 9E9, 9E9] ];
	CONST robtarget p14 := [ [550.0, 87.81666666666668, 760.3683333333333], [0.707106781, 0, 0.707106781, 0], [0, 0, 0, 0], [ 9E9, 9E9, 9E9, 9E9, 9E9, 9E9] ];
	CONST robtarget p15 := [ [550.0, 88.11067415730336, 758.5758426966293], [0.707106781, 0, 0.707106781, 0], [0, 0, 0, 0], [ 9E9, 9E9, 9E9, 9E9, 9E9, 9E9] ];
	CONST robtarget p16 := [ [550.0, 88.34184782608695, 756.7538043478261], [0.707106781, 0, 0.707106781, 0], [0, 0, 0, 0], [ 9E9, 9E9, 9E9, 9E9, 9E9, 9E9] ];
	CONST robtarget p17 := [ [550.0, 88.48483146067414, 755.2977528089888], [0.707106781, 0, 0.707106781, 0], [0, 0, 0, 0], [ 9E9, 9E9, 9E9, 9E9, 9E9, 9E9] ];
	CONST robtarget p18 := [ [550.0, 88.57078651685393, 754.0674157303371], [0.707106781, 0, 0.707106781, 0], [0, 0, 0, 0], [ 9E9, 9E9, 9E9, 9E9, 9E9, 9E9] ];
	CONST robtarget p19 := [ [550.0, 88.67045454545455, 752.5443181818182], [0.707106781, 0, 0.707106781, 0], [0, 0, 0, 0], [ 9E9, 9E9, 9E9, 9E9, 9E9, 9E9] ];
	CONST robtarget p20 := [ [550.0, 88.72105263157896, 751.2131578947368], [0.707106781, 0, 0.707106781, 0], [0, 0, 0, 0], [ 9E9, 9E9, 9E9, 9E9, 9E9, 9E9] ];
	CONST robtarget p21 := [ [550.0, 88.72105263157896, 748.9868421052631], [0.707106781, 0, 0.707106781, 0], [0, 0, 0, 0], [ 9E9, 9E9, 9E9, 9E9, 9E9, 9E9] ];
	CONST robtarget p22 := [ [550.0, 88.65529411764706, 747.3329411764706], [0.707106781, 0, 0.707106781, 0], [0, 0, 0, 0], [ 9E9, 9E9, 9E9, 9E9, 9E9, 9E9] ];
	CONST robtarget p23 := [ [550.0, 88.52000000000001, 745.25], [0.707106781, 0, 0.707106781, 0], [0, 0, 0, 0], [ 9E9, 9E9, 9E9, 9E9, 9E9, 9E9] ];
	CONST robtarget p24 := [ [550.0, 88.3532967032967, 743.5527472527473], [0.707106781, 0, 0.707106781, 0], [0, 0, 0, 0], [ 9E9, 9E9, 9E9, 9E9, 9E9, 9E9] ];
	CONST robtarget p25 := [ [550.0, 88.20833333333333, 742.355], [0.707106781, 0, 0.707106781, 0], [0, 0, 0, 0], [ 9E9, 9E9, 9E9, 9E9, 9E9, 9E9] ];
	CONST robtarget p26 := [ [550.0, 87.8456043956044, 739.9560439560439], [0.707106781, 0, 0.707106781, 0], [0, 0, 0, 0], [ 9E9, 9E9, 9E9, 9E9, 9E9, 9E9] ];
	CONST robtarget p27 := [ [550.0, 87.27820512820513, 738.8448717948718], [0.707106781, 0, 0.707106781, 0], [0, 0, 0, 0], [ 9E9, 9E9, 9E9, 9E9, 9E9, 9E9] ];
	CONST robtarget p28 := [ [550.0, 85.70406976744187, 739.1534883720931], [0.707106781, 0, 0.707106781, 0], [0, 0, 0, 0], [ 9E9, 9E9, 9E9, 9E9, 9E9, 9E9] ];
	CONST robtarget p29 := [ [550.0, 84.54418604651161, 739.7360465116279], [0.707106781, 0, 0.707106781, 0], [0, 0, 0, 0], [ 9E9, 9E9, 9E9, 9E9, 9E9, 9E9] ];
	CONST robtarget p30 := [ [550.0, 82.42747252747253, 740.8576923076923], [0.707106781, 0, 0.707106781, 0], [0, 0, 0, 0], [ 9E9, 9E9, 9E9, 9E9, 9E9, 9E9] ];
	CONST robtarget p31 := [ [550.0, 80.88793103448276, 741.7275862068966], [0.707106781, 0, 0.707106781, 0], [0, 0, 0, 0], [ 9E9, 9E9, 9E9, 9E9, 9E9, 9E9] ];
	CONST robtarget p32 := [ [550.0, 79.75227272727273, 742.4005681818181], [0.707106781, 0, 0.707106781, 0], [0, 0, 0, 0], [ 9E9, 9E9, 9E9, 9E9, 9E9, 9E9] ];
	CONST robtarget p33 := [ [550.0, 78.35730337078651, 743.2471910112359], [0.707106781, 0, 0.707106781, 0], [0, 0, 0, 0], [ 9E9, 9E9, 9E9, 9E9, 9E9, 9E9] ];
	CONST robtarget p34 := [ [550.0, 77.3443820224719, 743.9129213483146], [0.707106781, 0, 0.707106781, 0], [0, 0, 0, 0], [ 9E9, 9E9, 9E9, 9E9, 9E9, 9E9] ];
	CONST robtarget p35 := [ [550.0, 76.11166666666666, 744.7616666666667], [0.707106781, 0, 0.707106781, 0], [0, 0, 0, 0], [ 9E9, 9E9, 9E9, 9E9, 9E9, 9E9] ];
	CONST robtarget p36 := [ [550.0, 75.075, 745.525], [0.707106781, 0, 0.707106781, 0], [0, 0, 0, 0], [ 9E9, 9E9, 9E9, 9E9, 9E9, 9E9] ];
	CONST robtarget p37 := [ [550.0, 73.72078651685392, 746.5724719101123], [0.707106781, 0, 0.707106781, 0], [0, 0, 0, 0], [ 9E9, 9E9, 9E9, 9E9, 9E9, 9E9] ];
	CONST robtarget p38 := [ [550.0, 72.75833333333333, 747.3716666666667], [0.707106781, 0, 0.707106781, 0], [0, 0, 0, 0], [ 9E9, 9E9, 9E9, 9E9, 9E9, 9E9] ];
	CONST robtarget p39 := [ [550.0, 71.00113636363636, 748.9579545454545], [0.707106781, 0, 0.707106781, 0], [0, 0, 0, 0], [ 9E9, 9E9, 9E9, 9E9, 9E9, 9E9] ];
	CONST robtarget p40 := [ [550.0, 69.82758620689656, 750.1931034482759], [0.707106781, 0, 0.707106781, 0], [0, 0, 0, 0], [ 9E9, 9E9, 9E9, 9E9, 9E9, 9E9] ];
	CONST robtarget p41 := [ [550.0, 68.80280898876404, 751.4078651685393], [0.707106781, 0, 0.707106781, 0], [0, 0, 0, 0], [ 9E9, 9E9, 9E9, 9E9, 9E9, 9E9] ];
	CONST robtarget p42 := [ [550.0, 68.05384615384615, 752.4406593406593], [0.707106781, 0, 0.707106781, 0], [0, 0, 0, 0], [ 9E9, 9E9, 9E9, 9E9, 9E9, 9E9] ];
	CONST robtarget p43 := [ [550.0, 67.23539325842697, 753.7438202247191], [0.707106781, 0, 0.707106781, 0], [0, 0, 0, 0], [ 9E9, 9E9, 9E9, 9E9, 9E9, 9E9] ];
	CONST robtarget p44 := [ [550.0, 66.66666666666667, 754.8199999999999], [0.707106781, 0, 0.707106781, 0], [0, 0, 0, 0], [ 9E9, 9E9, 9E9, 9E9, 9E9, 9E9] ];
	CONST robtarget p45 := [ [550.0, 66.03068181818182, 756.3863636363636], [0.707106781, 0, 0.707106781, 0], [0, 0, 0, 0], [ 9E9, 9E9, 9E9, 9E9, 9E9, 9E9] ];
	CONST robtarget p46 := [ [550.0, 65.67032967032966, 757.6461538461539], [0.707106781, 0, 0.707106781, 0], [0, 0, 0, 0], [ 9E9, 9E9, 9E9, 9E9, 9E9, 9E9] ];
	CONST robtarget p47 := [ [550.0, 65.31067415730337, 759.4758426966292], [0.707106781, 0, 0.707106781, 0], [0, 0, 0, 0], [ 9E9, 9E9, 9E9, 9E9, 9E9, 9E9] ];
	CONST robtarget p48 := [ [550.0, 65.175, 760.975], [0.707106781, 0, 0.707106781, 0], [0, 0, 0, 0], [ 9E9, 9E9, 9E9, 9E9, 9E9, 9E9] ];
	CONST robtarget p49 := [ [550.0, 65.12278481012659, 762.7], [0.707106781, 0, 0.707106781, 0], [0, 0, 0, 0], [ 9E9, 9E9, 9E9, 9E9, 9E9, 9E9] ];
	CONST robtarget p50 := [ [550.0, 65.175, 764.425], [0.707106781, 0, 0.707106781, 0], [0, 0, 0, 0], [ 9E9, 9E9, 9E9, 9E9, 9E9, 9E9] ];
	CONST robtarget p51 := [ [550.0, 65.25494505494505, 765.6373626373627], [0.707106781, 0, 0.707106781, 0], [0, 0, 0, 0], [ 9E9, 9E9, 9E9, 9E9, 9E9, 9E9] ];
	CONST robtarget p52 := [ [550.0, 65.40168539325842, 767.0887640449438], [0.707106781, 0, 0.707106781, 0], [0, 0, 0, 0], [ 9E9, 9E9, 9E9, 9E9, 9E9, 9E9] ];
	CONST robtarget p53 := [ [550.0, 65.54831460674157, 768.3612359550561], [0.707106781, 0, 0.707106781, 0], [0, 0, 0, 0], [ 9E9, 9E9, 9E9, 9E9, 9E9, 9E9] ];
	CONST robtarget p54 := [ [550.0, 65.71153846153847, 769.7928571428572], [0.707106781, 0, 0.707106781, 0], [0, 0, 0, 0], [ 9E9, 9E9, 9E9, 9E9, 9E9, 9E9] ];
	CONST robtarget p55 := [ [550.0, 65.85666666666665, 770.9916666666667], [0.707106781, 0, 0.707106781, 0], [0, 0, 0, 0], [ 9E9, 9E9, 9E9, 9E9, 9E9, 9E9] ];
	CONST robtarget p56 := [ [550.0, 66.01833333333333, 772.3816666666667], [0.707106781, 0, 0.707106781, 0], [0, 0, 0, 0], [ 9E9, 9E9, 9E9, 9E9, 9E9, 9E9] ];
	CONST robtarget p57 := [ [550.0, 66.1741935483871, 773.8935483870968], [0.707106781, 0, 0.707106781, 0], [0, 0, 0, 0], [ 9E9, 9E9, 9E9, 9E9, 9E9, 9E9] ];
	CONST robtarget p58 := [ [550.0, 66.30529411764707, 775.8329411764706], [0.707106781, 0, 0.707106781, 0], [0, 0, 0, 0], [ 9E9, 9E9, 9E9, 9E9, 9E9, 9E9] ];
	CONST robtarget p59 := [ [550.0, 66.3586956521739, 777.4554347826087], [0.707106781, 0, 0.707106781, 0], [0, 0, 0, 0], [ 9E9, 9E9, 9E9, 9E9, 9E9, 9E9] ];
	CONST robtarget p60 := [ [550.0, 66.23793103448277, 779.7431034482759], [0.707106781, 0, 0.707106781, 0], [0, 0, 0, 0], [ 9E9, 9E9, 9E9, 9E9, 9E9, 9E9] ];
	CONST robtarget p61 := [ [550.0, 62.60604395604396, 786.7906593406593], [0.707106781, 0, 0.707106781, 0], [0, 0, 0, 0], [ 9E9, 9E9, 9E9, 9E9, 9E9, 9E9] ];
	CONST robtarget p62 := [ [550.0, 63.713736263736266, 787.4895604395605], [0.707106781, 0, 0.707106781, 0], [0, 0, 0, 0], [ 9E9, 9E9, 9E9, 9E9, 9E9, 9E9] ];
	CONST robtarget p63 := [ [550.0, 64.89725274725274, 788.228021978022], [0.707106781, 0, 0.707106781, 0], [0, 0, 0, 0], [ 9E9, 9E9, 9E9, 9E9, 9E9, 9E9] ];
	CONST robtarget p64 := [ [550.0, 66.6876404494382, 789.2837078651685], [0.707106781, 0, 0.707106781, 0], [0, 0, 0, 0], [ 9E9, 9E9, 9E9, 9E9, 9E9, 9E9] ];
	CONST robtarget p65 := [ [550.0, 67.7376404494382, 789.8837078651685], [0.707106781, 0, 0.707106781, 0], [0, 0, 0, 0], [ 9E9, 9E9, 9E9, 9E9, 9E9, 9E9] ];
	CONST robtarget p66 := [ [550.0, 69.02386363636364, 790.5914772727273], [0.707106781, 0, 0.707106781, 0], [0, 0, 0, 0], [ 9E9, 9E9, 9E9, 9E9, 9E9, 9E9] ];
	CONST robtarget p67 := [ [550.0, 70.37045454545455, 791.3227272727273], [0.707106781, 0, 0.707106781, 0], [0, 0, 0, 0], [ 9E9, 9E9, 9E9, 9E9, 9E9, 9E9] ];
	CONST robtarget p68 := [ [550.0, 71.45166666666667, 791.905], [0.707106781, 0, 0.707106781, 0], [0, 0, 0, 0], [ 9E9, 9E9, 9E9, 9E9, 9E9, 9E9] ];
	CONST robtarget p69 := [ [550.0, 72.62267441860465, 792.5238372093023], [0.707106781, 0, 0.707106781, 0], [0, 0, 0, 0], [ 9E9, 9E9, 9E9, 9E9, 9E9, 9E9] ];
	CONST robtarget p70 := [ [550.0, 74.31734693877551, 793.426530612245], [0.707106781, 0, 0.707106781, 0], [0, 0, 0, 0], [ 9E9, 9E9, 9E9, 9E9, 9E9, 9E9] ];
	CONST robtarget p71 := [ [550.0, 75.80795454545455, 794.1761363636364], [0.707106781, 0, 0.707106781, 0], [0, 0, 0, 0], [ 9E9, 9E9, 9E9, 9E9, 9E9, 9E9] ];
	CONST robtarget p72 := [ [550.0, 76.97267441860465, 794.7738372093023], [0.707106781, 0, 0.707106781, 0], [0, 0, 0, 0], [ 9E9, 9E9, 9E9, 9E9, 9E9, 9E9] ];
	CONST robtarget p73 := [ [550.0, 78.82252747252747, 795.7576923076923], [0.707106781, 0, 0.707106781, 0], [0, 0, 0, 0], [ 9E9, 9E9, 9E9, 9E9, 9E9, 9E9] ];
	CONST robtarget p74 := [ [550.0, 80.50397727272727, 796.7482954545454], [0.707106781, 0, 0.707106781, 0], [0, 0, 0, 0], [ 9E9, 9E9, 9E9, 9E9, 9E9, 9E9] ];
	CONST robtarget p75 := [ [550.0, 81.53833333333333, 797.4], [0.707106781, 0, 0.707106781, 0], [0, 0, 0, 0], [ 9E9, 9E9, 9E9, 9E9, 9E9, 9E9] ];
	CONST robtarget p76 := [ [550.0, 83.325, 798.625], [0.707106781, 0, 0.707106781, 0], [0, 0, 0, 0], [ 9E9, 9E9, 9E9, 9E9, 9E9, 9E9] ];
	CONST robtarget p77 := [ [550.0, 84.34833333333333, 799.4016666666666], [0.707106781, 0, 0.707106781, 0], [0, 0, 0, 0], [ 9E9, 9E9, 9E9, 9E9, 9E9, 9E9] ];
	CONST robtarget p78 := [ [550.0, 85.3186046511628, 800.1738372093023], [0.707106781, 0, 0.707106781, 0], [0, 0, 0, 0], [ 9E9, 9E9, 9E9, 9E9, 9E9, 9E9] ];
	CONST robtarget p79 := [ [550.0, 86.20833333333333, 800.9916666666667], [0.707106781, 0, 0.707106781, 0], [0, 0, 0, 0], [ 9E9, 9E9, 9E9, 9E9, 9E9, 9E9] ];
	CONST robtarget p80 := [ [550.0, 87.73499999999999, 802.7966666666666], [0.707106781, 0, 0.707106781, 0], [0, 0, 0, 0], [ 9E9, 9E9, 9E9, 9E9, 9E9, 9E9] ];
	CONST robtarget p81 := [ [550.0, 88.40284090909091, 803.8732954545454], [0.707106781, 0, 0.707106781, 0], [0, 0, 0, 0], [ 9E9, 9E9, 9E9, 9E9, 9E9, 9E9] ];
	CONST robtarget p82 := [ [550.0, 89.16627906976744, 805.378488372093], [0.707106781, 0, 0.707106781, 0], [0, 0, 0, 0], [ 9E9, 9E9, 9E9, 9E9, 9E9, 9E9] ];
	CONST robtarget p83 := [ [550.0, 89.6655172413793, 806.5620689655173], [0.707106781, 0, 0.707106781, 0], [0, 0, 0, 0], [ 9E9, 9E9, 9E9, 9E9, 9E9, 9E9] ];
	CONST robtarget p84 := [ [550.0, 90.06818181818183, 807.9403409090909], [0.707106781, 0, 0.707106781, 0], [0, 0, 0, 0], [ 9E9, 9E9, 9E9, 9E9, 9E9, 9E9] ];
	CONST robtarget p85 := [ [550.0, 90.3375, 809.552302631579], [0.707106781, 0, 0.707106781, 0], [0, 0, 0, 0], [ 9E9, 9E9, 9E9, 9E9, 9E9, 9E9] ];
	CONST robtarget p86 := [ [550.0, 91.86263736263736, 809.354945054945], [0.707106781, 0, 0.707106781, 0], [0, 0, 0, 0], [ 9E9, 9E9, 9E9, 9E9, 9E9, 9E9] ];
	CONST robtarget p87 := [ [550.0, 93.35380434782607, 809.1820652173913], [0.707106781, 0, 0.707106781, 0], [0, 0, 0, 0], [ 9E9, 9E9, 9E9, 9E9, 9E9, 9E9] ];
	CONST robtarget p88 := [ [550.0, 94.54945054945054, 809.0005494505494], [0.707106781, 0, 0.707106781, 0], [0, 0, 0, 0], [ 9E9, 9E9, 9E9, 9E9, 9E9, 9E9] ];
	CONST robtarget p89 := [ [550.0, 96.38089887640449, 808.6691011235955], [0.707106781, 0, 0.707106781, 0], [0, 0, 0, 0], [ 9E9, 9E9, 9E9, 9E9, 9E9, 9E9] ];
	CONST robtarget p90 := [ [550.0, 97.58426966292134, 808.426404494382], [0.707106781, 0, 0.707106781, 0], [0, 0, 0, 0], [ 9E9, 9E9, 9E9, 9E9, 9E9, 9E9] ];
	CONST robtarget p91 := [ [550.0, 98.80054945054945, 808.1516483516483], [0.707106781, 0, 0.707106781, 0], [0, 0, 0, 0], [ 9E9, 9E9, 9E9, 9E9, 9E9, 9E9] ];
	CONST robtarget p92 := [ [550.0, 100.095, 807.845], [0.707106781, 0, 0.707106781, 0], [0, 0, 0, 0], [ 9E9, 9E9, 9E9, 9E9, 9E9, 9E9] ];
	CONST robtarget p93 := [ [550.0, 101.30224719101125, 807.538202247191], [0.707106781, 0, 0.707106781, 0], [0, 0, 0, 0], [ 9E9, 9E9, 9E9, 9E9, 9E9, 9E9] ];
	CONST robtarget p94 := [ [550.0, 102.52833333333334, 807.2033333333334], [0.707106781, 0, 0.707106781, 0], [0, 0, 0, 0], [ 9E9, 9E9, 9E9, 9E9, 9E9, 9E9] ];
	CONST robtarget p95 := [ [550.0, 103.73166666666665, 806.8633333333333], [0.707106781, 0, 0.707106781, 0], [0, 0, 0, 0], [ 9E9, 9E9, 9E9, 9E9, 9E9, 9E9] ];
	CONST robtarget p96 := [ [550.0, 105.23241758241757, 806.4175824175825], [0.707106781, 0, 0.707106781, 0], [0, 0, 0, 0], [ 9E9, 9E9, 9E9, 9E9, 9E9, 9E9] ];
	CONST robtarget p97 := [ [550.0, 106.84499999999998, 805.925], [0.707106781, 0, 0.707106781, 0], [0, 0, 0, 0], [ 9E9, 9E9, 9E9, 9E9, 9E9, 9E9] ];
	CONST robtarget p98 := [ [550.0, 108.22166666666666, 805.4966666666667], [0.707106781, 0, 0.707106781, 0], [0, 0, 0, 0], [ 9E9, 9E9, 9E9, 9E9, 9E9, 9E9] ];
	CONST robtarget p99 := [ [550.0, 109.55999999999999, 805.03], [0.707106781, 0, 0.707106781, 0], [0, 0, 0, 0], [ 9E9, 9E9, 9E9, 9E9, 9E9, 9E9] ];
	CONST robtarget p100 := [ [550.0, 111.06593406593406, 804.4428571428572], [0.707106781, 0, 0.707106781, 0], [0, 0, 0, 0], [ 9E9, 9E9, 9E9, 9E9, 9E9, 9E9] ];
	CONST robtarget p101 := [ [550.0, 112.73076923076924, 803.7274725274725], [0.707106781, 0, 0.707106781, 0], [0, 0, 0, 0], [ 9E9, 9E9, 9E9, 9E9, 9E9, 9E9] ];
	CONST robtarget p102 := [ [550.0, 113.88876404494383, 803.1949438202247], [0.707106781, 0, 0.707106781, 0], [0, 0, 0, 0], [ 9E9, 9E9, 9E9, 9E9, 9E9, 9E9] ];
	CONST robtarget p103 := [ [550.0, 114.9864705882353, 802.6635294117647], [0.707106781, 0, 0.707106781, 0], [0, 0, 0, 0], [ 9E9, 9E9, 9E9, 9E9, 9E9, 9E9] ];
	CONST robtarget p104 := [ [550.0, 116.31176470588234, 802.005294117647], [0.707106781, 0, 0.707106781, 0], [0, 0, 0, 0], [ 9E9, 9E9, 9E9, 9E9, 9E9, 9E9] ];
	CONST robtarget p105 := [ [550.0, 118.72252747252746, 800.7423076923077], [0.707106781, 0, 0.707106781, 0], [0, 0, 0, 0], [ 9E9, 9E9, 9E9, 9E9, 9E9, 9E9] ];
	CONST robtarget p106 := [ [550.0, 120.27613636363637, 799.8914772727272], [0.707106781, 0, 0.707106781, 0], [0, 0, 0, 0], [ 9E9, 9E9, 9E9, 9E9, 9E9, 9E9] ];
	CONST robtarget p107 := [ [550.0, 122.19775280898875, 798.7977528089888], [0.707106781, 0, 0.707106781, 0], [0, 0, 0, 0], [ 9E9, 9E9, 9E9, 9E9, 9E9, 9E9] ];
	CONST robtarget p108 := [ [550.0, 124.01612903225805, 797.2193548387097], [0.707106781, 0, 0.707106781, 0], [0, 0, 0, 0], [ 9E9, 9E9, 9E9, 9E9, 9E9, 9E9] ];
	CONST robtarget p109 := [ [550.0, 122.80166666666666, 796.06], [0.707106781, 0, 0.707106781, 0], [0, 0, 0, 0], [ 9E9, 9E9, 9E9, 9E9, 9E9, 9E9] ];
	CONST robtarget p110 := [ [550.0, 121.6721590909091, 795.4017045454545], [0.707106781, 0, 0.707106781, 0], [0, 0, 0, 0], [ 9E9, 9E9, 9E9, 9E9, 9E9, 9E9] ];
	CONST robtarget p111 := [ [550.0, 120.21666666666667, 794.62], [0.707106781, 0, 0.707106781, 0], [0, 0, 0, 0], [ 9E9, 9E9, 9E9, 9E9, 9E9, 9E9] ];
	CONST robtarget p112 := [ [550.0, 119.05397727272728, 794.0465909090909], [0.707106781, 0, 0.707106781, 0], [0, 0, 0, 0], [ 9E9, 9E9, 9E9, 9E9, 9E9, 9E9] ];
	CONST robtarget p113 := [ [550.0, 117.66166666666668, 793.4], [0.707106781, 0, 0.707106781, 0], [0, 0, 0, 0], [ 9E9, 9E9, 9E9, 9E9, 9E9, 9E9] ];
	CONST robtarget p114 := [ [550.0, 116.35666666666665, 792.8666666666667], [0.707106781, 0, 0.707106781, 0], [0, 0, 0, 0], [ 9E9, 9E9, 9E9, 9E9, 9E9, 9E9] ];
	CONST robtarget p115 := [ [550.0, 114.51263736263736, 792.1956043956044], [0.707106781, 0, 0.707106781, 0], [0, 0, 0, 0], [ 9E9, 9E9, 9E9, 9E9, 9E9, 9E9] ];
	CONST robtarget p116 := [ [550.0, 113.02747252747254, 791.7208791208791], [0.707106781, 0, 0.707106781, 0], [0, 0, 0, 0], [ 9E9, 9E9, 9E9, 9E9, 9E9, 9E9] ];
	CONST robtarget p117 := [ [550.0, 111.53166666666667, 791.2866666666666], [0.707106781, 0, 0.707106781, 0], [0, 0, 0, 0], [ 9E9, 9E9, 9E9, 9E9, 9E9, 9E9] ];
	CONST robtarget p118 := [ [550.0, 107.40882352941176, 789.8764705882353], [0.707106781, 0, 0.707106781, 0], [0, 0, 0, 0], [ 9E9, 9E9, 9E9, 9E9, 9E9, 9E9] ];
	CONST robtarget p119 := [ [550.0, 103.88958333333332, 789.26875], [0.707106781, 0, 0.707106781, 0], [0, 0, 0, 0], [ 9E9, 9E9, 9E9, 9E9, 9E9, 9E9] ];
	CONST robtarget p120 := [ [550.0, 102.18705882352941, 788.9605882352942], [0.707106781, 0, 0.707106781, 0], [0, 0, 0, 0], [ 9E9, 9E9, 9E9, 9E9, 9E9, 9E9] ];
	CONST robtarget p121 := [ [550.0, 100.72166666666666, 788.715], [0.707106781, 0, 0.707106781, 0], [0, 0, 0, 0], [ 9E9, 9E9, 9E9, 9E9, 9E9, 9E9] ];
	CONST robtarget p122 := [ [550.0, 99.08064516129032, 788.4306451612904], [0.707106781, 0, 0.707106781, 0], [0, 0, 0, 0], [ 9E9, 9E9, 9E9, 9E9, 9E9, 9E9] ];
	CONST robtarget p123 := [ [550.0, 97.8876404494382, 788.2623595505618], [0.707106781, 0, 0.707106781, 0], [0, 0, 0, 0], [ 9E9, 9E9, 9E9, 9E9, 9E9, 9E9] ];
	CONST robtarget p124 := [ [550.0, 95.90645161290323, 788.0258064516129], [0.707106781, 0, 0.707106781, 0], [0, 0, 0, 0], [ 9E9, 9E9, 9E9, 9E9, 9E9, 9E9] ];
	CONST robtarget p125 := [ [550.0, 94.25543478260869, 787.8804347826087], [0.707106781, 0, 0.707106781, 0], [0, 0, 0, 0], [ 9E9, 9E9, 9E9, 9E9, 9E9, 9E9] ];
	CONST robtarget p126 := [ [550.0, 92.09620253164557, 787.7556962025317], [0.707106781, 0, 0.707106781, 0], [0, 0, 0, 0], [ 9E9, 9E9, 9E9, 9E9, 9E9, 9E9] ];
	CONST robtarget p127 := [ [550.0, 90.06315789473685, 787.6789473684211], [0.707106781, 0, 0.707106781, 0], [0, 0, 0, 0], [ 9E9, 9E9, 9E9, 9E9, 9E9, 9E9] ];
	CONST robtarget p128 := [ [550.0, 87.19939024390244, 787.7609756097561], [0.707106781, 0, 0.707106781, 0], [0, 0, 0, 0], [ 9E9, 9E9, 9E9, 9E9, 9E9, 9E9] ];
	CONST robtarget p129 := [ [550.0, 84.66263736263735, 787.9049450549451], [0.707106781, 0, 0.707106781, 0], [0, 0, 0, 0], [ 9E9, 9E9, 9E9, 9E9, 9E9, 9E9] ];
	CONST robtarget p130 := [ [550.0, 83.19456521739131, 788.0304347826087], [0.707106781, 0, 0.707106781, 0], [0, 0, 0, 0], [ 9E9, 9E9, 9E9, 9E9, 9E9, 9E9] ];
	CONST robtarget p131 := [ [550.0, 81.6623595505618, 788.2050561797753], [0.707106781, 0, 0.707106781, 0], [0, 0, 0, 0], [ 9E9, 9E9, 9E9, 9E9, 9E9, 9E9] ];
	CONST robtarget p132 := [ [550.0, 79.86758241758243, 788.4307692307692], [0.707106781, 0, 0.707106781, 0], [0, 0, 0, 0], [ 9E9, 9E9, 9E9, 9E9, 9E9, 9E9] ];
	CONST robtarget p133 := [ [550.0, 77.00380434782608, 787.3538043478261], [0.707106781, 0, 0.707106781, 0], [0, 0, 0, 0], [ 9E9, 9E9, 9E9, 9E9, 9E9, 9E9] ];
	CONST robtarget p134 := [ [550.0, 77.59565217391305, 786.1701086956522], [0.707106781, 0, 0.707106781, 0], [0, 0, 0, 0], [ 9E9, 9E9, 9E9, 9E9, 9E9, 9E9] ];
	CONST robtarget p135 := [ [550.0, 78.23103448275862, 784.9189655172414], [0.707106781, 0, 0.707106781, 0], [0, 0, 0, 0], [ 9E9, 9E9, 9E9, 9E9, 9E9, 9E9] ];
	CONST robtarget p136 := [ [550.0, 78.82764705882353, 783.7582352941176], [0.707106781, 0, 0.707106781, 0], [0, 0, 0, 0], [ 9E9, 9E9, 9E9, 9E9, 9E9, 9E9] ];
	CONST robtarget p137 := [ [550.0, 79.54499999999999, 782.4016666666666], [0.707106781, 0, 0.707106781, 0], [0, 0, 0, 0], [ 9E9, 9E9, 9E9, 9E9, 9E9, 9E9] ];
	CONST robtarget p138 := [ [550.0, 80.24117647058824, 781.0811764705883], [0.707106781, 0, 0.707106781, 0], [0, 0, 0, 0], [ 9E9, 9E9, 9E9, 9E9, 9E9, 9E9] ];
	CONST robtarget p139 := [ [550.0, 75.975, 789.475], [0.707106781, 0, 0.707106781, 0], [0, 0, 0, 0], [ 9E9, 9E9, 9E9, 9E9, 9E9, 9E9] ];
	CONST robtarget p140 := [ [550.0, 75.11079545454545, 791.4369318181818], [0.707106781, 0, 0.707106781, 0], [0, 0, 0, 0], [ 9E9, 9E9, 9E9, 9E9, 9E9, 9E9] ];
	CONST robtarget p141 := [ [550.0, 73.63, 795.79], [0.707106781, 0, 0.707106781, 0], [0, 0, 0, 0], [ 9E9, 9E9, 9E9, 9E9, 9E9, 9E9] ];
	CONST robtarget p142 := [ [550.0, 73.36193181818182, 797.1011363636363], [0.707106781, 0, 0.707106781, 0], [0, 0, 0, 0], [ 9E9, 9E9, 9E9, 9E9, 9E9, 9E9] ];
	CONST robtarget p143 := [ [550.0, 73.16703296703297, 798.4873626373626], [0.707106781, 0, 0.707106781, 0], [0, 0, 0, 0], [ 9E9, 9E9, 9E9, 9E9, 9E9, 9E9] ];
	CONST robtarget p144 := [ [550.0, 73.10344827586206, 801.5137931034483], [0.707106781, 0, 0.707106781, 0], [0, 0, 0, 0], [ 9E9, 9E9, 9E9, 9E9, 9E9, 9E9] ];
	CONST robtarget p145 := [ [550.0, 73.32894736842105, 803.3157894736842], [0.707106781, 0, 0.707106781, 0], [0, 0, 0, 0], [ 9E9, 9E9, 9E9, 9E9, 9E9, 9E9] ];
	CONST robtarget p146 := [ [550.0, 73.77931034482759, 806.153448275862], [0.707106781, 0, 0.707106781, 0], [0, 0, 0, 0], [ 9E9, 9E9, 9E9, 9E9, 9E9, 9E9] ];
	CONST robtarget p147 := [ [550.0, 74.15604395604396, 807.643956043956], [0.707106781, 0, 0.707106781, 0], [0, 0, 0, 0], [ 9E9, 9E9, 9E9, 9E9, 9E9, 9E9] ];
	CONST robtarget p148 := [ [550.0, 74.38576642335767, 809.2240875912408], [0.707106781, 0, 0.707106781, 0], [0, 0, 0, 0], [ 9E9, 9E9, 9E9, 9E9, 9E9, 9E9] ];
	CONST robtarget p149 := [ [550.0, 72.54910714285714, 809.2616071428572], [0.707106781, 0, 0.707106781, 0], [0, 0, 0, 0], [ 9E9, 9E9, 9E9, 9E9, 9E9, 9E9] ];
	CONST robtarget p150 := [ [550.0, 70.56542553191488, 809.0021276595745], [0.707106781, 0, 0.707106781, 0], [0, 0, 0, 0], [ 9E9, 9E9, 9E9, 9E9, 9E9, 9E9] ];
	CONST robtarget p151 := [ [550.0, 69.21195652173913, 808.7402173913043], [0.707106781, 0, 0.707106781, 0], [0, 0, 0, 0], [ 9E9, 9E9, 9E9, 9E9, 9E9, 9E9] ];
	CONST robtarget p152 := [ [550.0, 68.03709677419354, 808.483870967742], [0.707106781, 0, 0.707106781, 0], [0, 0, 0, 0], [ 9E9, 9E9, 9E9, 9E9, 9E9, 9E9] ];
	CONST robtarget p153 := [ [550.0, 66.825, 808.1858695652174], [0.707106781, 0, 0.707106781, 0], [0, 0, 0, 0], [ 9E9, 9E9, 9E9, 9E9, 9E9, 9E9] ];
	CONST robtarget p154 := [ [550.0, 65.475, 807.7945652173913], [0.707106781, 0, 0.707106781, 0], [0, 0, 0, 0], [ 9E9, 9E9, 9E9, 9E9, 9E9, 9E9] ];
	CONST robtarget p155 := [ [550.0, 63.23548387096774, 806.9935483870968], [0.707106781, 0, 0.707106781, 0], [0, 0, 0, 0], [ 9E9, 9E9, 9E9, 9E9, 9E9, 9E9] ];
	CONST robtarget p156 := [ [550.0, 62.025, 806.446195652174], [0.707106781, 0, 0.707106781, 0], [0, 0, 0, 0], [ 9E9, 9E9, 9E9, 9E9, 9E9, 9E9] ];
	CONST robtarget p157 := [ [550.0, 60.544382022471915, 805.6370786516854], [0.707106781, 0, 0.707106781, 0], [0, 0, 0, 0], [ 9E9, 9E9, 9E9, 9E9, 9E9, 9E9] ];
	CONST robtarget p158 := [ [550.0, 59.36373626373627, 804.8664835164835], [0.707106781, 0, 0.707106781, 0], [0, 0, 0, 0], [ 9E9, 9E9, 9E9, 9E9, 9E9, 9E9] ];
	CONST robtarget p159 := [ [550.0, 58.38202247191011, 804.1050561797753], [0.707106781, 0, 0.707106781, 0], [0, 0, 0, 0], [ 9E9, 9E9, 9E9, 9E9, 9E9, 9E9] ];
	CONST robtarget p160 := [ [550.0, 57.36235955056179, 803.1460674157304], [0.707106781, 0, 0.707106781, 0], [0, 0, 0, 0], [ 9E9, 9E9, 9E9, 9E9, 9E9, 9E9] ];
	CONST robtarget p161 := [ [550.0, 56.45172413793104, 802.0982758620689], [0.707106781, 0, 0.707106781, 0], [0, 0, 0, 0], [ 9E9, 9E9, 9E9, 9E9, 9E9, 9E9] ];
	CONST robtarget p162 := [ [550.0, 55.11833333333334, 800.4166666666666], [0.707106781, 0, 0.707106781, 0], [0, 0, 0, 0], [ 9E9, 9E9, 9E9, 9E9, 9E9, 9E9] ];
	CONST robtarget p163 := [ [550.0, 54.267613636363635, 799.2045454545455], [0.707106781, 0, 0.707106781, 0], [0, 0, 0, 0], [ 9E9, 9E9, 9E9, 9E9, 9E9, 9E9] ];
	CONST robtarget p164 := [ [550.0, 53.62241379310344, 798.1620689655173], [0.707106781, 0, 0.707106781, 0], [0, 0, 0, 0], [ 9E9, 9E9, 9E9, 9E9, 9E9, 9E9] ];
	CONST robtarget p165 := [ [550.0, 53.02325581395348, 797.1005813953489], [0.707106781, 0, 0.707106781, 0], [0, 0, 0, 0], [ 9E9, 9E9, 9E9, 9E9, 9E9, 9E9] ];
	CONST robtarget p166 := [ [550.0, 52.42584269662922, 795.9157303370787], [0.707106781, 0, 0.707106781, 0], [0, 0, 0, 0], [ 9E9, 9E9, 9E9, 9E9, 9E9, 9E9] ];
	CONST robtarget p167 := [ [550.0, 51.83736263736264, 794.5675824175825], [0.707106781, 0, 0.707106781, 0], [0, 0, 0, 0], [ 9E9, 9E9, 9E9, 9E9, 9E9, 9E9] ];
	CONST robtarget p168 := [ [550.0, 51.395604395604394, 793.3626373626373], [0.707106781, 0, 0.707106781, 0], [0, 0, 0, 0], [ 9E9, 9E9, 9E9, 9E9, 9E9, 9E9] ];
	CONST robtarget p169 := [ [550.0, 50.91833333333334, 791.885], [0.707106781, 0, 0.707106781, 0], [0, 0, 0, 0], [ 9E9, 9E9, 9E9, 9E9, 9E9, 9E9] ];
	CONST robtarget p170 := [ [550.0, 50.47078651685393, 790.3775280898876], [0.707106781, 0, 0.707106781, 0], [0, 0, 0, 0], [ 9E9, 9E9, 9E9, 9E9, 9E9, 9E9] ];
	CONST robtarget p171 := [ [550.0, 50.13275862068965, 789.1810344827586], [0.707106781, 0, 0.707106781, 0], [0, 0, 0, 0], [ 9E9, 9E9, 9E9, 9E9, 9E9, 9E9] ];
	CONST robtarget p172 := [ [550.0, 49.73166666666666, 787.815], [0.707106781, 0, 0.707106781, 0], [0, 0, 0, 0], [ 9E9, 9E9, 9E9, 9E9, 9E9, 9E9] ];
	CONST robtarget p173 := [ [550.0, 47.61857142857143, 783.1342857142857], [0.707106781, 0, 0.707106781, 0], [0, 0, 0, 0], [ 9E9, 9E9, 9E9, 9E9, 9E9, 9E9] ];
	CONST robtarget p174 := [ [550.0, 46.238181818181815, 780.9727272727273], [0.707106781, 0, 0.707106781, 0], [0, 0, 0, 0], [ 9E9, 9E9, 9E9, 9E9, 9E9, 9E9] ];
	CONST robtarget p175 := [ [550.0, 43.923529411764704, 778.6547058823529], [0.707106781, 0, 0.707106781, 0], [0, 0, 0, 0], [ 9E9, 9E9, 9E9, 9E9, 9E9, 9E9] ];
	CONST robtarget p176 := [ [550.0, 40.141304347826086, 776.2619565217391], [0.707106781, 0, 0.707106781, 0], [0, 0, 0, 0], [ 9E9, 9E9, 9E9, 9E9, 9E9, 9E9] ];
	CONST robtarget p177 := [ [550.0, 38.312359550561794, 775.5359550561798], [0.707106781, 0, 0.707106781, 0], [0, 0, 0, 0], [ 9E9, 9E9, 9E9, 9E9, 9E9, 9E9] ];
	CONST robtarget p178 := [ [550.0, 36.36758241758242, 774.9769230769231], [0.707106781, 0, 0.707106781, 0], [0, 0, 0, 0], [ 9E9, 9E9, 9E9, 9E9, 9E9, 9E9] ];
	CONST robtarget p179 := [ [550.0, 35.182417582417585, 774.7428571428571], [0.707106781, 0, 0.707106781, 0], [0, 0, 0, 0], [ 9E9, 9E9, 9E9, 9E9, 9E9, 9E9] ];
	CONST robtarget p180 := [ [550.0, 33.628125, 774.45625], [0.707106781, 0, 0.707106781, 0], [0, 0, 0, 0], [ 9E9, 9E9, 9E9, 9E9, 9E9, 9E9] ];
	CONST robtarget p181 := [ [550.0, 33.64780219780219, 772.8802197802198], [0.707106781, 0, 0.707106781, 0], [0, 0, 0, 0], [ 9E9, 9E9, 9E9, 9E9, 9E9, 9E9] ];
	CONST robtarget p182 := [ [550.0, 34.85625, 772.3630681818182], [0.707106781, 0, 0.707106781, 0], [0, 0, 0, 0], [ 9E9, 9E9, 9E9, 9E9, 9E9, 9E9] ];
	CONST robtarget p183 := [ [550.0, 36.51067415730337, 771.5078651685393], [0.707106781, 0, 0.707106781, 0], [0, 0, 0, 0], [ 9E9, 9E9, 9E9, 9E9, 9E9, 9E9] ];
	CONST robtarget p184 := [ [550.0, 37.57258064516129, 770.8709677419355], [0.707106781, 0, 0.707106781, 0], [0, 0, 0, 0], [ 9E9, 9E9, 9E9, 9E9, 9E9, 9E9] ];
	CONST robtarget p185 := [ [550.0, 38.64945652173913, 770.1413043478261], [0.707106781, 0, 0.707106781, 0], [0, 0, 0, 0], [ 9E9, 9E9, 9E9, 9E9, 9E9, 9E9] ];
	CONST robtarget p186 := [ [550.0, 39.6576923076923, 769.3708791208792], [0.707106781, 0, 0.707106781, 0], [0, 0, 0, 0], [ 9E9, 9E9, 9E9, 9E9, 9E9, 9E9] ];
	CONST robtarget p187 := [ [550.0, 40.608333333333334, 768.5083333333333], [0.707106781, 0, 0.707106781, 0], [0, 0, 0, 0], [ 9E9, 9E9, 9E9, 9E9, 9E9, 9E9] ];
	CONST robtarget p188 := [ [550.0, 41.50833333333334, 767.6083333333333], [0.707106781, 0, 0.707106781, 0], [0, 0, 0, 0], [ 9E9, 9E9, 9E9, 9E9, 9E9, 9E9] ];
	CONST robtarget p189 := [ [550.0, 42.355000000000004, 766.655], [0.707106781, 0, 0.707106781, 0], [0, 0, 0, 0], [ 9E9, 9E9, 9E9, 9E9, 9E9, 9E9] ];
	CONST robtarget p190 := [ [550.0, 43.27582417582418, 765.4659340659341], [0.707106781, 0, 0.707106781, 0], [0, 0, 0, 0], [ 9E9, 9E9, 9E9, 9E9, 9E9, 9E9] ];
	CONST robtarget p191 := [ [550.0, 44.132386363636364, 764.2289772727273], [0.707106781, 0, 0.707106781, 0], [0, 0, 0, 0], [ 9E9, 9E9, 9E9, 9E9, 9E9, 9E9] ];
	CONST robtarget p192 := [ [550.0, 44.80813953488372, 763.146511627907], [0.707106781, 0, 0.707106781, 0], [0, 0, 0, 0], [ 9E9, 9E9, 9E9, 9E9, 9E9, 9E9] ];
	CONST robtarget p193 := [ [550.0, 45.42413793103449, 762.0586206896552], [0.707106781, 0, 0.707106781, 0], [0, 0, 0, 0], [ 9E9, 9E9, 9E9, 9E9, 9E9, 9E9] ];
	CONST robtarget p194 := [ [550.0, 47.68483146067416, 761.2522471910113], [0.707106781, 0, 0.707106781, 0], [0, 0, 0, 0], [ 9E9, 9E9, 9E9, 9E9, 9E9, 9E9] ];
	CONST robtarget p195 := [ [550.0, 47.89602272727272, 763.0715909090909], [0.707106781, 0, 0.707106781, 0], [0, 0, 0, 0], [ 9E9, 9E9, 9E9, 9E9, 9E9, 9E9] ];
	CONST robtarget p196 := [ [550.0, 48.07752808988764, 764.2623595505618], [0.707106781, 0, 0.707106781, 0], [0, 0, 0, 0], [ 9E9, 9E9, 9E9, 9E9, 9E9, 9E9] ];
	CONST robtarget p197 := [ [550.0, 48.45170454545455, 766.09375], [0.707106781, 0, 0.707106781, 0], [0, 0, 0, 0], [ 9E9, 9E9, 9E9, 9E9, 9E9, 9E9] ];
	CONST robtarget p198 := [ [550.0, 48.763636363636365, 767.3909090909091], [0.707106781, 0, 0.707106781, 0], [0, 0, 0, 0], [ 9E9, 9E9, 9E9, 9E9, 9E9, 9E9] ];
	CONST robtarget p199 := [ [550.0, 49.283720930232555, 769.2215116279069], [0.707106781, 0, 0.707106781, 0], [0, 0, 0, 0], [ 9E9, 9E9, 9E9, 9E9, 9E9, 9E9] ];
	CONST robtarget p200 := [ [550.0, 49.73275862068966, 770.5827586206897], [0.707106781, 0, 0.707106781, 0], [0, 0, 0, 0], [ 9E9, 9E9, 9E9, 9E9, 9E9, 9E9] ];
	CONST robtarget p201 := [ [550.0, 50.168181818181814, 771.7835227272727], [0.707106781, 0, 0.707106781, 0], [0, 0, 0, 0], [ 9E9, 9E9, 9E9, 9E9, 9E9, 9E9] ];
	CONST robtarget p202 := [ [550.0, 50.63522727272728, 772.975], [0.707106781, 0, 0.707106781, 0], [0, 0, 0, 0], [ 9E9, 9E9, 9E9, 9E9, 9E9, 9E9] ];
	CONST robtarget p203 := [ [550.0, 51.23522727272727, 774.325], [0.707106781, 0, 0.707106781, 0], [0, 0, 0, 0], [ 9E9, 9E9, 9E9, 9E9, 9E9, 9E9] ];
	CONST robtarget p204 := [ [550.0, 51.887790697674426, 775.6593023255814], [0.707106781, 0, 0.707106781, 0], [0, 0, 0, 0], [ 9E9, 9E9, 9E9, 9E9, 9E9, 9E9] ];
	CONST robtarget p205 := [ [550.0, 52.44715909090909, 776.7267045454546], [0.707106781, 0, 0.707106781, 0], [0, 0, 0, 0], [ 9E9, 9E9, 9E9, 9E9, 9E9, 9E9] ];
	CONST robtarget p206 := [ [550.0, 53.21666666666666, 778.0533333333333], [0.707106781, 0, 0.707106781, 0], [0, 0, 0, 0], [ 9E9, 9E9, 9E9, 9E9, 9E9, 9E9] ];
	CONST robtarget p207 := [ [550.0, 53.925, 779.125], [0.707106781, 0, 0.707106781, 0], [0, 0, 0, 0], [ 9E9, 9E9, 9E9, 9E9, 9E9, 9E9] ];
	CONST robtarget p208 := [ [550.0, 55.11235955056179, 780.6460674157304], [0.707106781, 0, 0.707106781, 0], [0, 0, 0, 0], [ 9E9, 9E9, 9E9, 9E9, 9E9, 9E9] ];
	CONST robtarget p209 := [ [550.0, 56.291666666666664, 781.8583333333333], [0.707106781, 0, 0.707106781, 0], [0, 0, 0, 0], [ 9E9, 9E9, 9E9, 9E9, 9E9, 9E9] ];
	CONST robtarget p210 := [ [550.0, 57.55, 783.0034482758621], [0.707106781, 0, 0.707106781, 0], [0, 0, 0, 0], [ 9E9, 9E9, 9E9, 9E9, 9E9, 9E9] ];
	CONST robtarget p211 := [ [550.0, 58.53579545454545, 783.8159090909091], [0.707106781, 0, 0.707106781, 0], [0, 0, 0, 0], [ 9E9, 9E9, 9E9, 9E9, 9E9, 9E9] ];
	CONST robtarget p212 := [ [550.0, 59.625, 784.6869318181818], [0.707106781, 0, 0.707106781, 0], [0, 0, 0, 0], [ 9E9, 9E9, 9E9, 9E9, 9E9, 9E9] ];
	CONST robtarget p213 := [ [550.0, 60.825, 785.575], [0.707106781, 0, 0.707106781, 0], [0, 0, 0, 0], [ 9E9, 9E9, 9E9, 9E9, 9E9, 9E9] ];
	CONST robtarget p214 := [ [550.0, 47.226923076923086, 759.435576923077], [0.707106781, 0, 0.707106781, 0], [0, 0, 0, 0], [ 9E9, 9E9, 9E9, 9E9, 9E9, 9E9] ];
	CONST robtarget p215 := [ [550.0, 31.968627450980392, 773.943137254902], [0.707106781, 0, 0.707106781, 0], [0, 0, 0, 0], [ 9E9, 9E9, 9E9, 9E9, 9E9, 9E9] ];
	CONST robtarget p216 := [ [550.0, 76.03676470588235, 811.8558823529412], [0.707106781, 0, 0.707106781, 0], [0, 0, 0, 0], [ 9E9, 9E9, 9E9, 9E9, 9E9, 9E9] ];
	CONST robtarget p217 := [ [550.0, 77.45373134328358, 814.1567164179105], [0.707106781, 0, 0.707106781, 0], [0, 0, 0, 0], [ 9E9, 9E9, 9E9, 9E9, 9E9, 9E9] ];
	CONST robtarget p218 := [ [550.0, 80.20714285714284, 817.8142857142857], [0.707106781, 0, 0.707106781, 0], [0, 0, 0, 0], [ 9E9, 9E9, 9E9, 9E9, 9E9, 9E9] ];
	CONST robtarget p219 := [ [550.0, 80.89945054945055, 819.0274725274726], [0.707106781, 0, 0.707106781, 0], [0, 0, 0, 0], [ 9E9, 9E9, 9E9, 9E9, 9E9, 9E9] ];
	CONST robtarget p220 := [ [550.0, 81.68500000000002, 820.825], [0.707106781, 0, 0.707106781, 0], [0, 0, 0, 0], [ 9E9, 9E9, 9E9, 9E9, 9E9, 9E9] ];
	CONST robtarget p221 := [ [550.0, 82.08666666666666, 822.18], [0.707106781, 0, 0.707106781, 0], [0, 0, 0, 0], [ 9E9, 9E9, 9E9, 9E9, 9E9, 9E9] ];
	CONST robtarget p222 := [ [550.0, 82.315, 823.41], [0.707106781, 0, 0.707106781, 0], [0, 0, 0, 0], [ 9E9, 9E9, 9E9, 9E9, 9E9, 9E9] ];
	CONST robtarget p223 := [ [550.0, 82.425, 824.875], [0.707106781, 0, 0.707106781, 0], [0, 0, 0, 0], [ 9E9, 9E9, 9E9, 9E9, 9E9, 9E9] ];
	CONST robtarget p224 := [ [550.0, 82.52359550561798, 826.5376404494382], [0.707106781, 0, 0.707106781, 0], [0, 0, 0, 0], [ 9E9, 9E9, 9E9, 9E9, 9E9, 9E9] ];
	CONST robtarget p225 := [ [550.0, 82.67, 828.2], [0.707106781, 0, 0.707106781, 0], [0, 0, 0, 0], [ 9E9, 9E9, 9E9, 9E9, 9E9, 9E9] ];
	CONST robtarget p226 := [ [550.0, 82.81956521739131, 830.1445652173913], [0.707106781, 0, 0.707106781, 0], [0, 0, 0, 0], [ 9E9, 9E9, 9E9, 9E9, 9E9, 9E9] ];
	CONST robtarget p227 := [ [550.0, 83.21973684210526, 831.3684210526316], [0.707106781, 0, 0.707106781, 0], [0, 0, 0, 0], [ 9E9, 9E9, 9E9, 9E9, 9E9, 9E9] ];
	CONST robtarget p228 := [ [550.0, 84.33865979381443, 830.898969072165], [0.707106781, 0, 0.707106781, 0], [0, 0, 0, 0], [ 9E9, 9E9, 9E9, 9E9, 9E9, 9E9] ];
	CONST robtarget p229 := [ [550.0, 84.59662921348315, 829.3539325842696], [0.707106781, 0, 0.707106781, 0], [0, 0, 0, 0], [ 9E9, 9E9, 9E9, 9E9, 9E9, 9E9] ];
	CONST robtarget p230 := [ [550.0, 84.75815217391305, 827.7461956521739], [0.707106781, 0, 0.707106781, 0], [0, 0, 0, 0], [ 9E9, 9E9, 9E9, 9E9, 9E9, 9E9] ];
	CONST robtarget p231 := [ [550.0, 84.89340659340658, 826.5521978021978], [0.707106781, 0, 0.707106781, 0], [0, 0, 0, 0], [ 9E9, 9E9, 9E9, 9E9, 9E9, 9E9] ];
	CONST robtarget p232 := [ [550.0, 85.03977272727272, 825.3403409090909], [0.707106781, 0, 0.707106781, 0], [0, 0, 0, 0], [ 9E9, 9E9, 9E9, 9E9, 9E9, 9E9] ];
	CONST robtarget p233 := [ [550.0, 85.27087912087912, 823.8208791208791], [0.707106781, 0, 0.707106781, 0], [0, 0, 0, 0], [ 9E9, 9E9, 9E9, 9E9, 9E9, 9E9] ];
	CONST robtarget p234 := [ [550.0, 85.6368131868132, 822.0324175824176], [0.707106781, 0, 0.707106781, 0], [0, 0, 0, 0], [ 9E9, 9E9, 9E9, 9E9, 9E9, 9E9] ];
	CONST robtarget p235 := [ [550.0, 86.05271739130436, 820.6831521739131], [0.707106781, 0, 0.707106781, 0], [0, 0, 0, 0], [ 9E9, 9E9, 9E9, 9E9, 9E9, 9E9] ];
	CONST robtarget p236 := [ [550.0, 86.61428571428571, 819.4840659340659], [0.707106781, 0, 0.707106781, 0], [0, 0, 0, 0], [ 9E9, 9E9, 9E9, 9E9, 9E9, 9E9] ];
	CONST robtarget p237 := [ [550.0, 87.2629213483146, 818.4443820224719], [0.707106781, 0, 0.707106781, 0], [0, 0, 0, 0], [ 9E9, 9E9, 9E9, 9E9, 9E9, 9E9] ];
	CONST robtarget p238 := [ [550.0, 88.30056818181818, 816.8022727272727], [0.707106781, 0, 0.707106781, 0], [0, 0, 0, 0], [ 9E9, 9E9, 9E9, 9E9, 9E9, 9E9] ];
	CONST robtarget p239 := [ [550.0, 89.19395604395604, 815.139010989011], [0.707106781, 0, 0.707106781, 0], [0, 0, 0, 0], [ 9E9, 9E9, 9E9, 9E9, 9E9, 9E9] ];
	CONST robtarget p240 := [ [550.0, 89.95, 813.1883333333333], [0.707106781, 0, 0.707106781, 0], [0, 0, 0, 0], [ 9E9, 9E9, 9E9, 9E9, 9E9, 9E9] ];
	CONST robtarget p241 := [ [550.0, 90.33387096774194, 811.2032258064517], [0.707106781, 0, 0.707106781, 0], [0, 0, 0, 0], [ 9E9, 9E9, 9E9, 9E9, 9E9, 9E9] ];
	CONST robtarget p242 := [ [550.0, 88.45, 809.63], [0.707106781, 0, 0.707106781, 0], [0, 0, 0, 0], [ 9E9, 9E9, 9E9, 9E9, 9E9, 9E9] ];
	CONST robtarget p243 := [ [550.0, 86.925, 809.725], [0.707106781, 0, 0.707106781, 0], [0, 0, 0, 0], [ 9E9, 9E9, 9E9, 9E9, 9E9, 9E9] ];
	CONST robtarget p244 := [ [550.0, 85.15060975609757, 809.7890243902439], [0.707106781, 0, 0.707106781, 0], [0, 0, 0, 0], [ 9E9, 9E9, 9E9, 9E9, 9E9, 9E9] ];
	CONST robtarget p245 := [ [550.0, 82.86473684210526, 809.871052631579], [0.707106781, 0, 0.707106781, 0], [0, 0, 0, 0], [ 9E9, 9E9, 9E9, 9E9, 9E9, 9E9] ];
	CONST robtarget p246 := [ [550.0, 81.50106382978723, 809.875], [0.707106781, 0, 0.707106781, 0], [0, 0, 0, 0], [ 9E9, 9E9, 9E9, 9E9, 9E9, 9E9] ];
	CONST robtarget p247 := [ [550.0, 83.57909090909092, 834.6045454545455], [0.707106781, 0, 0.707106781, 0], [0, 0, 0, 0], [ 9E9, 9E9, 9E9, 9E9, 9E9, 9E9] ];
	PROC main()
		MoveJ p01, v200, z20, tool0;
		MoveJ p02, v200, z20, tool0;
		MoveJ p03, v200, z20, tool0;
		MoveJ p04, v200, z20, tool0;
		MoveJ p05, v200, z20, tool0;
		MoveJ p06, v200, z20, tool0;
		MoveJ p07, v200, z20, tool0;
		MoveJ p08, v200, z20, tool0;
		MoveJ p09, v200, z20, tool0;
		MoveJ p10, v200, z20, tool0;
		MoveJ p11, v200, z20, tool0;
		MoveJ p12, v200, z20, tool0;
		MoveJ p13, v200, z20, tool0;
		MoveJ p14, v200, z20, tool0;
		MoveJ p15, v200, z20, tool0;
		MoveJ p16, v200, z20, tool0;
		MoveJ p17, v200, z20, tool0;
		MoveJ p18, v200, z20, tool0;
		MoveJ p19, v200, z20, tool0;
		MoveJ p20, v200, z20, tool0;
		MoveJ p21, v200, z20, tool0;
		MoveJ p22, v200, z20, tool0;
		MoveJ p23, v200, z20, tool0;
		MoveJ p24, v200, z20, tool0;
		MoveJ p25, v200, z20, tool0;
		MoveJ p26, v200, z20, tool0;
		MoveJ p27, v200, z20, tool0;
		MoveJ p28, v200, z20, tool0;
		MoveJ p29, v200, z20, tool0;
		MoveJ p30, v200, z20, tool0;
		MoveJ p31, v200, z20, tool0;
		MoveJ p32, v200, z20, tool0;
		MoveJ p33, v200, z20, tool0;
		MoveJ p34, v200, z20, tool0;
		MoveJ p35, v200, z20, tool0;
		MoveJ p36, v200, z20, tool0;
		MoveJ p37, v200, z20, tool0;
		MoveJ p38, v200, z20, tool0;
		MoveJ p39, v200, z20, tool0;
		MoveJ p40, v200, z20, tool0;
		MoveJ p41, v200, z20, tool0;
		MoveJ p42, v200, z20, tool0;
		MoveJ p43, v200, z20, tool0;
		MoveJ p44, v200, z20, tool0;
		MoveJ p45, v200, z20, tool0;
		MoveJ p46, v200, z20, tool0;
		MoveJ p47, v200, z20, tool0;
		MoveJ p48, v200, z20, tool0;
		MoveJ p49, v200, z20, tool0;
		MoveJ p50, v200, z20, tool0;
		MoveJ p51, v200, z20, tool0;
		MoveJ p52, v200, z20, tool0;
		MoveJ p53, v200, z20, tool0;
		MoveJ p54, v200, z20, tool0;
		MoveJ p55, v200, z20, tool0;
		MoveJ p56, v200, z20, tool0;
		MoveJ p57, v200, z20, tool0;
		MoveJ p58, v200, z20, tool0;
		MoveJ p59, v200, z20, tool0;
		MoveJ p60, v200, z20, tool0;
		MoveJ p61, v200, z20, tool0;
		MoveJ p62, v200, z20, tool0;
		MoveJ p63, v200, z20, tool0;
		MoveJ p64, v200, z20, tool0;
		MoveJ p65, v200, z20, tool0;
		MoveJ p66, v200, z20, tool0;
		MoveJ p67, v200, z20, tool0;
		MoveJ p68, v200, z20, tool0;
		MoveJ p69, v200, z20, tool0;
		MoveJ p70, v200, z20, tool0;
		MoveJ p71, v200, z20, tool0;
		MoveJ p72, v200, z20, tool0;
		MoveJ p73, v200, z20, tool0;
		MoveJ p74, v200, z20, tool0;
		MoveJ p75, v200, z20, tool0;
		MoveJ p76, v200, z20, tool0;
		MoveJ p77, v200, z20, tool0;
		MoveJ p78, v200, z20, tool0;
		MoveJ p79, v200, z20, tool0;
		MoveJ p80, v200, z20, tool0;
		MoveJ p81, v200, z20, tool0;
		MoveJ p82, v200, z20, tool0;
		MoveJ p83, v200, z20, tool0;
		MoveJ p84, v200, z20, tool0;
		MoveJ p85, v200, z20, tool0;
		MoveJ p86, v200, z20, tool0;
		MoveJ p87, v200, z20, tool0;
		MoveJ p88, v200, z20, tool0;
		MoveJ p89, v200, z20, tool0;
		MoveJ p90, v200, z20, tool0;
		MoveJ p91, v200, z20, tool0;
		MoveJ p92, v200, z20, tool0;
		MoveJ p93, v200, z20, tool0;
		MoveJ p94, v200, z20, tool0;
		MoveJ p95, v200, z20, tool0;
		MoveJ p96, v200, z20, tool0;
		MoveJ p97, v200, z20, tool0;
		MoveJ p98, v200, z20, tool0;
		MoveJ p99, v200, z20, tool0;
		MoveJ p100, v200, z20, tool0;
		MoveJ p101, v200, z20, tool0;
		MoveJ p102, v200, z20, tool0;
		MoveJ p103, v200, z20, tool0;
		MoveJ p104, v200, z20, tool0;
		MoveJ p105, v200, z20, tool0;
		MoveJ p106, v200, z20, tool0;
		MoveJ p107, v200, z20, tool0;
		MoveJ p108, v200, z20, tool0;
		MoveJ p109, v200, z20, tool0;
		MoveJ p110, v200, z20, tool0;
		MoveJ p111, v200, z20, tool0;
		MoveJ p112, v200, z20, tool0;
		MoveJ p113, v200, z20, tool0;
		MoveJ p114, v200, z20, tool0;
		MoveJ p115, v200, z20, tool0;
		MoveJ p116, v200, z20, tool0;
		MoveJ p117, v200, z20, tool0;
		MoveJ p118, v200, z20, tool0;
		MoveJ p119, v200, z20, tool0;
		MoveJ p120, v200, z20, tool0;
		MoveJ p121, v200, z20, tool0;
		MoveJ p122, v200, z20, tool0;
		MoveJ p123, v200, z20, tool0;
		MoveJ p124, v200, z20, tool0;
		MoveJ p125, v200, z20, tool0;
		MoveJ p126, v200, z20, tool0;
		MoveJ p127, v200, z20, tool0;
		MoveJ p128, v200, z20, tool0;
		MoveJ p129, v200, z20, tool0;
		MoveJ p130, v200, z20, tool0;
		MoveJ p131, v200, z20, tool0;
		MoveJ p132, v200, z20, tool0;
		MoveJ p133, v200, z20, tool0;
		MoveJ p134, v200, z20, tool0;
		MoveJ p135, v200, z20, tool0;
		MoveJ p136, v200, z20, tool0;
		MoveJ p137, v200, z20, tool0;
		MoveJ p138, v200, z20, tool0;
		MoveJ p139, v200, z20, tool0;
		MoveJ p140, v200, z20, tool0;
		MoveJ p141, v200, z20, tool0;
		MoveJ p142, v200, z20, tool0;
		MoveJ p143, v200, z20, tool0;
		MoveJ p144, v200, z20, tool0;
		MoveJ p145, v200, z20, tool0;
		MoveJ p146, v200, z20, tool0;
		MoveJ p147, v200, z20, tool0;
		MoveJ p148, v200, z20, tool0;
		MoveJ p149, v200, z20, tool0;
		MoveJ p150, v200, z20, tool0;
		MoveJ p151, v200, z20, tool0;
		MoveJ p152, v200, z20, tool0;
		MoveJ p153, v200, z20, tool0;
		MoveJ p154, v200, z20, tool0;
		MoveJ p155, v200, z20, tool0;
		MoveJ p156, v200, z20, tool0;
		MoveJ p157, v200, z20, tool0;
		MoveJ p158, v200, z20, tool0;
		MoveJ p159, v200, z20, tool0;
		MoveJ p160, v200, z20, tool0;
		MoveJ p161, v200, z20, tool0;
		MoveJ p162, v200, z20, tool0;
		MoveJ p163, v200, z20, tool0;
		MoveJ p164, v200, z20, tool0;
		MoveJ p165, v200, z20, tool0;
		MoveJ p166, v200, z20, tool0;
		MoveJ p167, v200, z20, tool0;
		MoveJ p168, v200, z20, tool0;
		MoveJ p169, v200, z20, tool0;
		MoveJ p170, v200, z20, tool0;
		MoveJ p171, v200, z20, tool0;
		MoveJ p172, v200, z20, tool0;
		MoveJ p173, v200, z20, tool0;
		MoveJ p174, v200, z20, tool0;
		MoveJ p175, v200, z20, tool0;
		MoveJ p176, v200, z20, tool0;
		MoveJ p177, v200, z20, tool0;
		MoveJ p178, v200, z20, tool0;
		MoveJ p179, v200, z20, tool0;
		MoveJ p180, v200, z20, tool0;
		MoveJ p181, v200, z20, tool0;
		MoveJ p182, v200, z20, tool0;
		MoveJ p183, v200, z20, tool0;
		MoveJ p184, v200, z20, tool0;
		MoveJ p185, v200, z20, tool0;
		MoveJ p186, v200, z20, tool0;
		MoveJ p187, v200, z20, tool0;
		MoveJ p188, v200, z20, tool0;
		MoveJ p189, v200, z20, tool0;
		MoveJ p190, v200, z20, tool0;
		MoveJ p191, v200, z20, tool0;
		MoveJ p192, v200, z20, tool0;
		MoveJ p193, v200, z20, tool0;
		MoveJ p194, v200, z20, tool0;
		MoveJ p195, v200, z20, tool0;
		MoveJ p196, v200, z20, tool0;
		MoveJ p197, v200, z20, tool0;
		MoveJ p198, v200, z20, tool0;
		MoveJ p199, v200, z20, tool0;
		MoveJ p200, v200, z20, tool0;
		MoveJ p201, v200, z20, tool0;
		MoveJ p202, v200, z20, tool0;
		MoveJ p203, v200, z20, tool0;
		MoveJ p204, v200, z20, tool0;
		MoveJ p205, v200, z20, tool0;
		MoveJ p206, v200, z20, tool0;
		MoveJ p207, v200, z20, tool0;
		MoveJ p208, v200, z20, tool0;
		MoveJ p209, v200, z20, tool0;
		MoveJ p210, v200, z20, tool0;
		MoveJ p211, v200, z20, tool0;
		MoveJ p212, v200, z20, tool0;
		MoveJ p213, v200, z20, tool0;
		MoveJ p214, v200, z20, tool0;
		MoveJ p215, v200, z20, tool0;
		MoveJ p216, v200, z20, tool0;
		MoveJ p217, v200, z20, tool0;
		MoveJ p218, v200, z20, tool0;
		MoveJ p219, v200, z20, tool0;
		MoveJ p220, v200, z20, tool0;
		MoveJ p221, v200, z20, tool0;
		MoveJ p222, v200, z20, tool0;
		MoveJ p223, v200, z20, tool0;
		MoveJ p224, v200, z20, tool0;
		MoveJ p225, v200, z20, tool0;
		MoveJ p226, v200, z20, tool0;
		MoveJ p227, v200, z20, tool0;
		MoveJ p228, v200, z20, tool0;
		MoveJ p229, v200, z20, tool0;
		MoveJ p230, v200, z20, tool0;
		MoveJ p231, v200, z20, tool0;
		MoveJ p232, v200, z20, tool0;
		MoveJ p233, v200, z20, tool0;
		MoveJ p234, v200, z20, tool0;
		MoveJ p235, v200, z20, tool0;
		MoveJ p236, v200, z20, tool0;
		MoveJ p237, v200, z20, tool0;
		MoveJ p238, v200, z20, tool0;
		MoveJ p239, v200, z20, tool0;
		MoveJ p240, v200, z20, tool0;
		MoveJ p241, v200, z20, tool0;
		MoveJ p242, v200, z20, tool0;
		MoveJ p243, v200, z20, tool0;
		MoveJ p244, v200, z20, tool0;
		MoveJ p245, v200, z20, tool0;
		MoveJ p246, v200, z20, tool0;
		MoveJ p247, v200, z20, tool0;
	ENDPROC
ENDMODULE
